cached_logos/vertica.svg

<?xml version="1.0" encoding="UTF-8" standalone="no"?>
<svg   viewBox="-19.659999999999968 -6.560000000000002 1022.32 341.12" version="1.1" xmlns="http://www.w3.org/2000/svg" xmlns:xlink="http://www.w3.org/1999/xlink">
    <!-- Generator: Sketch 3.7.1 (28215) - http://www.bohemiancoding.com/sketch -->
    <title>Group</title>
    <desc>Created with Sketch.</desc>
    <defs></defs>
    <g id="Page-1" stroke="none" stroke-width="1" fill="none" fill-rule="evenodd">
        <g id="Desktop-HD" transform="translate(-229.000000, -348.000000)">
            <g id="Group" transform="translate(229.000000, 348.000000)">
                <path d="M104.445597,327.704371 C102.081906,326.817485 102.525098,297.845877 104.888789,297.845877 L478.351969,297.845877 C682.663511,297.845877 852.11061,297.402434 854.622032,296.958991 L859.349414,296.072105 L859.644875,248.47589 L860.088067,201.02749 L874.861136,201.02749 L889.634205,201.02749 L889.634205,264.292023 L889.634205,327.408743 L497.704689,327.852186 C282.313345,328 105.18425,328 104.445597,327.704371 L104.445597,327.704371 Z" id="Shape" fill="#1F4475"></path>
                <path d="M101.786444,259.118522 C101.047791,258.083822 87.0133754,233.251014 70.7629997,203.983776 C54.6603547,174.716539 31.9098287,133.919784 20.386835,113.225777 C8.8638413,92.6795854 -0.295461377,74.7940514 0.147730688,73.6115367 C0.88638413,71.9855791 4.43192065,71.6899504 17.5799519,71.9855791 L34.125789,72.4290221 L41.3645927,84.9932402 C45.3533213,91.9405137 60.8650436,119.729608 75.9335738,146.77963 C91.002104,173.681839 103.706943,195.853988 104.297866,195.853988 C105.18425,195.853988 113.161707,182.107256 151.423956,113.817035 L174.617674,72.4290221 L239.619176,72.4290221 L304.620679,72.4290221 L304.620679,87.2104552 L304.620679,101.991888 L249.517133,102.73096 L194.413586,103.470032 L190.720319,110.121676 C188.652089,113.817035 170.776676,145.74493 150.980763,181.072555 C108.582056,257.196936 107.104749,259.709779 105.036519,260.448851 C104.150135,260.744479 102.672828,260.153222 101.786444,259.118522 L101.786444,259.118522 Z" id="Shape" fill="#1A2C49"></path>
                <path d="M177.572287,251.727805 C177.129095,250.693105 176.981365,226.894998 177.129095,198.810275 L177.572287,147.814331 L241.096483,147.814331 L304.620679,147.814331 L304.620679,162.595764 L304.620679,177.377197 L256.312744,177.82064 L207.857078,178.116269 L207.857078,200.288418 L207.857078,222.460568 L256.312744,222.756196 L304.620679,223.199639 L304.620679,237.981073 L304.620679,252.762506 L241.391945,253.205949 C191.458972,253.501577 178.015479,253.205949 177.572287,251.727805 L177.572287,251.727805 Z" id="Shape" fill="#1A2C49"></path>
                <path d="M314.961827,251.727805 C314.518635,250.693105 314.370905,209.89635 314.518635,161.117621 L314.961827,72.4290221 L363.712955,71.9855791 C394.588668,71.6899504 416.009618,72.1333934 422.066576,73.1680937 C441.714758,76.5678233 456.192365,88.2451555 461.215209,104.800361 C464.022092,114.112663 464.022092,135.545741 461.215209,145.005858 C458.703787,153.431275 451.169522,163.039207 443.044334,167.91708 C440.08972,169.690852 437.430568,171.316809 437.135107,171.464624 C436.987376,171.612438 444.817102,186.393871 454.715059,204.131591 C477.170123,244.632717 479.977006,250.249662 478.942891,252.023434 C478.351969,252.91032 470.817704,253.501577 461.953862,253.501577 L445.703487,253.501577 L442.305681,248.032447 C440.385182,244.928346 431.225879,228.816584 422.066576,212.113565 C412.907274,195.410545 404.486625,180.629112 403.157048,179.298783 C401.236549,176.933754 397.838744,176.638125 374.054103,176.638125 L347.019387,176.638125 L346.133003,190.384858 C345.54208,197.775575 345.246619,214.33078 345.54208,226.894998 C345.689811,239.459216 345.394349,250.693105 344.803427,251.727805 C343.917042,252.91032 339.18966,253.501577 329.587166,253.501577 C319.83694,253.501577 315.40502,252.91032 314.961827,251.727805 L314.961827,251.727805 Z M421.623384,143.232087 C429.15765,140.2758 432.703186,133.328526 431.964533,122.833709 C431.521341,115.295178 430.782687,113.521406 426.793959,109.973862 C419.555155,103.470032 413.498197,102.583146 378.190562,103.026589 L345.985272,103.470032 L345.54208,121.207751 C344.951157,148.109959 341.996543,145.449301 373.758641,145.892744 C405.373009,146.484002 415.123234,145.892744 421.623384,143.232087 L421.623384,143.232087 Z" id="Shape" fill="#1A2C49"></path>
                <path d="M515.875564,251.727805 C515.432372,250.693105 514.989179,216.843623 514.693718,176.638125 L514.398257,103.470032 L493.420499,103.026589 L472.590472,102.583146 L468.010821,94.6011717 C465.499399,90.0189274 460.919748,83.8107256 457.965134,80.4109959 C454.567328,76.7156377 453.090021,74.0549797 454.124136,73.0202794 C455.01052,72.1333934 483.818004,71.8377648 530.796363,71.9855791 L605.991283,72.4290221 L605.991283,87.2104552 L605.991283,101.991888 L576.149684,102.435331 L546.160355,102.73096 L545.864893,177.82064 L545.421701,252.762506 L530.944094,253.205949 C520.307484,253.501577 516.318756,253.058134 515.875564,251.727805 L515.875564,251.727805 Z" id="Shape" fill="#1A2C49"></path>
                <path d="M616.332432,251.727805 C615.88924,250.693105 615.741509,209.89635 615.88924,161.117621 L616.332432,72.4290221 L631.1055,72.4290221 L645.878569,72.4290221 L645.878569,162.595764 L645.878569,252.762506 L631.400962,253.205949 C620.764352,253.501577 616.775624,253.058134 616.332432,251.727805 L616.332432,251.727805 Z" id="Shape" fill="#1A2C49"></path>
                <path d="M725.653141,250.988734 C668.333634,238.867959 638.492035,173.681839 665.37902,119.138351 C676.16336,97.2618297 698.470694,79.3762956 722.698527,73.1680937 C743.824016,67.6989635 771.006462,70.2118071 788.734145,79.2284813 C798.041178,83.9585399 813.552901,96.6705723 813.552901,99.6268589 C813.552901,102.287517 801.291253,124.164038 798.927562,125.494367 C798.188909,126.085624 793.609258,122.981523 788.881876,118.990536 C784.154494,114.851735 776.029306,109.382605 770.711001,106.721947 C761.99489,102.435331 759.926661,101.991888 747.074091,101.991888 C734.369252,101.991888 732.153291,102.435331 722.993989,106.721947 C698.175233,118.547093 683.106703,146.040559 687.686354,171.021181 C692.413736,196.59306 712.357379,216.547995 737.914788,221.278053 C755.199279,224.529968 775.438383,217.878324 788.438683,204.870662 C794.791103,198.366832 803.950406,183.585399 854.031109,97.5574583 C872.497445,66.0730059 873.974752,63.8557909 876.338443,65.4817485 C877.224827,66.0730059 894.804779,95.7836863 915.487075,131.554754 C936.021641,167.325822 959.806282,208.566021 968.226931,223.051825 C976.64758,237.685444 983.295461,250.397476 982.852269,251.579991 C982.261347,253.058134 978.124887,253.501577 966.010971,253.501577 C952.567478,253.501577 949.612864,253.058134 947.544635,250.988734 C946.362789,249.51059 929.521491,221.130239 910.168771,187.872014 C881.952209,139.536728 874.713405,128.00721 873.53156,129.928797 C872.645176,131.111311 860.974451,150.918432 847.530959,173.829653 C818.428013,223.495268 810.746017,232.659757 789.91599,242.858945 C782.972648,246.258675 773.370153,250.101848 768.495041,251.284362 C757.56297,254.092835 739.244364,253.94502 725.653141,250.988734 L725.653141,250.988734 Z" id="Shape" fill="#1A2C49"></path>
                <path d="M90.4111812,124.607481 C89.9679892,123.572781 89.8202585,95.0446147 89.9679892,61.3429473 L90.4111812,0 L482.636159,0 L874.861136,0 L874.861136,14.7814331 L874.861136,29.5628662 L497.85242,30.0063091 L120.695972,30.3019378 L120.400511,78.0459667 L119.957319,125.642181 L105.479711,126.085624 C94.8431019,126.381253 90.8543733,125.93781 90.4111812,124.607481 L90.4111812,124.607481 Z" id="Shape" fill="#1F4475"></path>
            </g>
        </g>
    </g>
</svg>

<svg xmlns="http://www.w3.org/2000/svg" role="img" viewBox="-19.64 -19.64 1021.28 366.28"><title>Vertica logo</title><g fill="none" fill-rule="evenodd"><g><g><path fill="#1F4475" d="M104.446 327.704c-2.364-.887-1.92-29.858.443-29.858h373.463c204.312 0 373.759-.444 376.27-.887l4.727-.887.296-47.596.443-47.449h29.546V327.41l-391.93.443c-215.39.148-392.52.148-393.258-.148z"/><path fill="#1A2C49" d="M101.786 259.119c-.738-1.035-14.773-25.868-31.023-55.135-16.103-29.267-38.853-70.064-50.376-90.758C8.864 92.68-.295 74.794.147 73.612c.74-1.626 4.285-1.922 17.433-1.626l16.546.443 7.239 12.564c3.988 6.948 19.5 34.737 34.569 61.787 15.068 26.902 27.773 49.074 28.364 49.074.886 0 8.864-13.747 47.126-82.037l23.194-41.388H304.62v29.563l-55.104.739-55.103.739-3.694 6.652c-2.068 3.695-19.943 35.623-39.74 70.95-42.398 76.125-43.875 78.638-45.943 79.377-.887.295-2.364-.296-3.25-1.33z"/><path fill="#1A2C49" d="M177.572 251.728c-.443-1.035-.59-24.833-.443-52.918l.443-50.996h127.049v29.563l-48.308.444-48.456.295v44.345l48.456.295 48.308.444v29.563l-63.23.443c-49.932.296-63.376 0-63.819-1.478zm137.39 0c-.443-1.035-.591-41.832-.443-90.61l.443-88.689 48.751-.443c30.876-.296 52.297.147 58.354 1.182 19.648 3.4 34.125 15.077 39.148 31.632 2.807 9.313 2.807 30.746 0 40.206-2.511 8.425-10.045 18.033-18.17 22.911-2.955 1.774-5.614 3.4-5.91 3.548-.148.147 7.682 14.929 17.58 32.667 22.455 40.5 25.262 46.118 24.228 47.891-.591.887-8.125 1.479-16.99 1.479h-16.25l-3.397-5.47c-1.92-3.104-11.08-19.215-20.24-35.918-9.159-16.703-17.58-31.485-18.909-32.815-1.92-2.365-5.318-2.66-29.103-2.66H347.02l-.886 13.746c-.59 7.39-.886 23.946-.59 36.51.147 12.564-.149 23.798-.74 24.833-.886 1.182-5.613 1.774-15.216 1.774-9.75 0-14.182-.592-14.625-1.774zm106.661-108.496c7.535-2.956 11.08-9.903 10.342-20.398-.444-7.539-1.182-9.313-5.171-12.86-7.239-6.504-13.296-7.39-48.603-6.947l-32.206.443-.443 17.738c-.59 26.902-3.545 24.241 28.217 24.685 31.614.591 41.364 0 47.864-2.66zm94.253 108.496c-.444-1.035-.887-34.884-1.182-75.09l-.296-73.168-20.978-.443-20.83-.444-4.58-7.982c-2.51-4.582-7.09-10.79-10.045-14.19-3.398-3.695-4.875-6.356-3.84-7.39.886-.888 29.693-1.183 76.671-1.035l75.195.443v29.563l-29.841.443-29.99.296-.295 75.09-.443 74.942-14.478.443c-10.637.296-14.625-.148-15.068-1.478zm100.456 0c-.443-1.035-.59-41.832-.443-90.61l.443-88.689h29.548v180.334l-14.478.443c-10.637.296-14.625-.148-15.069-1.478zm109.321-.739c-57.32-12.121-87.161-77.307-60.274-131.85 10.784-21.877 33.092-39.763 57.32-45.97 21.125-5.47 48.307-2.957 66.035 6.06 9.307 4.73 24.819 17.442 24.819 20.398 0 2.66-12.262 24.537-14.625 25.867-.74.592-5.319-2.512-10.046-6.503-4.728-4.14-12.853-9.608-18.171-12.27-8.716-4.286-10.784-4.73-23.637-4.73-12.705 0-14.92.444-24.08 4.73-24.819 11.826-39.887 39.32-35.308 64.3a62.637 62.637 0 0 0 50.229 50.257c17.284 3.252 37.523-3.4 50.524-16.407 6.352-6.504 15.511-21.286 65.592-107.314 18.466-31.484 19.944-33.701 22.307-32.075.887.591 18.467 30.302 39.15 66.073 20.534 35.77 44.318 77.011 52.739 91.497 8.42 14.633 15.068 27.345 14.625 28.528-.59 1.478-4.727 1.922-16.841 1.922-13.444 0-16.398-.444-18.466-2.513-1.182-1.478-18.024-29.859-37.376-63.117-28.217-48.335-35.456-59.865-36.637-57.943-.887 1.182-12.558 20.99-26.001 43.9-29.103 49.666-36.785 58.83-57.615 69.03-6.943 3.4-16.546 7.243-21.421 8.425-10.932 2.809-29.25 2.661-42.842-.295z"/><path fill="#1F4475" d="M90.411 124.607c-.443-1.034-.59-29.562-.443-63.264L90.411 0h784.45v29.563l-377.009.443-377.156.296-.295 47.744-.444 47.596-14.477.444c-10.637.295-14.626-.148-15.069-1.479z"/></g></g></g></svg>
